PortableApps/LibreOfficePortable/App/libreoffice/help/media/icon-themes/cmd/sc_formatcelldialog.svg

<svg viewBox="0 0 16 16" xmlns="http://www.w3.org/2000/svg"><path d="m6 5v1h-5v8h9v-4c0-.554.446-1 1-1h4v-4z" fill="#fff" fill-opacity=".998084"/><path d="m6 1v4h4v4h-4v-3h-1v3h-4v1h4v4h1v-4h4c0-.554.446-1 1-1v-4h4.001953v4c.553074.0010703.998047.4466659.998047 1v-5-4zm-6 5v8.5c-.00038442.276301.22369855.500384.5.5h10.5c-.553334 0-.99893-.444973-1-.998047h-9.00195312v-8.001953z" fill="#808080"/><g fill="#eac282"><rect height="1" rx=".5" width="3"/><rect height="3" rx=".5" width="1"/><path d="m.4999293 4.5 4-4v4z" fill-rule="evenodd" stroke="#eac282" stroke-linecap="round" stroke-linejoin="round"/><path d="m11 10v4h4v-4z"/></g></svg>

<?xml version="1.0" encoding="UTF-8" standalone="no"?>
<svg xmlns="http://www.w3.org/2000/svg" xmlns:sodipodi="http://sodipodi.sourceforge.net/DTD/sodipodi-0.dtd" xmlns:inkscape="http://www.inkscape.org/namespaces/inkscape" viewBox="0 0 16 16" version="1.1">
 <metadata id="metadata22">
  <rdf:RDF>
   <cc:Work>
    <dc:format>image/svg+xml</dc:format>
    <dc:type rdf:resource="http://purl.org/dc/dcmitype/StillImage"/>
   </cc:Work>
  </rdf:RDF>
 </metadata>
 <defs id="defs20"/>
 <sodipodi:namedview pagecolor="#ffffff" bordercolor="#666666" borderopacity="1" objecttolerance="10" gridtolerance="10" guidetolerance="10" inkscape:pageopacity="0" inkscape:pageshadow="2" inkscape:window-width="2560" inkscape:window-height="1319" id="namedview18" showgrid="true" inkscape:zoom="20.85965" inkscape:cx="0.29387609" inkscape:cy="5.3206814" inkscape:window-x="0" inkscape:window-y="30" inkscape:window-maximized="1" inkscape:current-layer="svg16">
  <inkscape:grid type="xygrid" id="grid835"/>
 </sodipodi:namedview>
 <path d="M 6 5 L 6 6 L 1 6 L 1 14 L 10 14 L 10 10 C 10 9.446 10.446 9 11 9 L 15 9 L 15 5 L 6 5 z " id="path2" fill="#ffffff" fill-opacity="0.998084"/>
 <path d="m 6,1 v 4 h 4 V 9 H 6 V 6 H 5 V 9 H 1 v 1 h 4 v 4 h 1 v -4 h 4 C 10,9.446 10.446,9 11,9 V 5 h 4.001953 V 9 C 15.555027,9.0010703 16,9.4466659 16,10 V 5 1 Z M 0,6 v 8.5 c -3.8442e-4,0.276301 0.22369855,0.500384 0.5,0.5 H 11 c -0.553334,0 -0.99893,-0.444973 -1,-0.998047 H 0.99804688 V 6 Z" id="path4" inkscape:connector-curvature="0" sodipodi:nodetypes="ccccccccccccccccccccccccccccccc" fill="#808080" fill-opacity="1"/>
 <g fill="#eac282" id="g14">
  <rect height="1" width="3" id="rect8" rx="0.5"/>
  <rect height="3" rx="0.5" width="1" id="rect10"/>
  <path d="m.4999293 4.5 4-4v4z" fill-rule="evenodd" stroke="#eac282" stroke-linecap="round" stroke-linejoin="round" id="path12"/>
 </g>
 <path inkscape:connector-curvature="0" d="m 11,10 v 4 h 4 v -4 z" id="path26" fill="#eac282"/>
</svg>
